X:218
T: Die verkaufte Muellerin
N: Q0086Q
O: Osteuropa, UdSSR, Bessarabien
R: Ballade, Menschenhandel, Rettung, Hinrichtung
M: 4/4
L: 1/8
K: G
D | G2D2G2DD | B2A2G2
D2 | G2D2G2D2 | B2A2G2z
B | c2B2A2G2 | B2d2A2z
d | e2d2c2B2 | A2c2B2z

